app/assets/images/icons/get-ready.svg

<?xml version="1.0" encoding="UTF-8"?>
<svg width="43px" height="47px" viewBox="0 0 43 47" version="1.1" xmlns="http://www.w3.org/2000/svg" xmlns:xlink="http://www.w3.org/1999/xlink">
    <!-- Generator: Sketch 47 (45396) - http://www.bohemiancoding.com/sketch -->
    <title>Index_Mobile_movingDay_anchor</title>
    <desc>Created with Sketch.</desc>
    <defs>
        <polygon id="path-1" points="0.0367243243 46.5916988 42.845045 46.5916988 42.845045 0.434855856 0.0367243243 0.434855856"></polygon>
    </defs>
    <g id="Move.mil-Index" stroke="none" stroke-width="1" fill="none" fill-rule="evenodd">
        <g id="Index_Mobile" transform="translate(-172.000000, -564.000000)">
            <g id="Group-5" transform="translate(15.000000, 564.000000)">
                <g id="noun_200773" transform="translate(157.000000, 0.000000)">
                    <mask id="mask-2" fill="white">
                        <use xlink:href="#path-1"></use>
                    </mask>
                    <g id="Clip-2"></g>
                    <path d="M41.4984865,20.4382252 C41.4984865,20.5003475 41.4372793,20.5624698 41.3760721,20.5624698 L39.7846847,20.5624698 C39.7234775,20.5624698 39.6622703,20.5003475 39.6622703,20.4382252 L39.6622703,15.9654221 C39.6622703,15.9032999 39.7234775,15.8411776 39.7846847,15.8411776 L41.3760721,15.8411776 C41.4372793,15.8411776 41.4984865,15.9032999 41.4984865,15.9654221 L41.4984865,20.4382252 Z M36.7855315,35.2233243 L36.7855315,4.47280309 C36.7855315,3.72733591 36.1734595,3.10611326 35.438973,3.10611326 L7.22245045,3.10611326 C6.48796396,3.10611326 5.87589189,3.72733591 5.87589189,4.47280309 L5.87589189,35.2233243 L4.2845045,35.2233243 L4.2845045,20.624592 C4.2845045,20.5624698 4.2845045,20.5003475 4.2845045,20.4382252 L4.2845045,15.9654221 C4.2845045,15.9032999 4.2845045,15.8411776 4.2845045,15.7790553 L4.2845045,1.92579022 C4.2845045,1.80154569 4.40691892,1.67730116 4.52933333,1.67730116 L38.1932973,1.67730116 C38.3157117,1.67730116 38.4381261,1.80154569 38.4381261,1.92579022 L38.4381261,35.2233243 L36.7855315,35.2233243 Z M7.10003604,30.0050541 L17.0156036,30.0050541 C17.0768108,30.0050541 17.138018,30.0050541 17.2604324,29.9429318 L35.6225946,29.9429318 L35.6225946,35.2233243 L7.10003604,35.2233243 L7.10003604,30.0050541 Z M35.5613874,4.59704762 L35.5613874,5.28039254 L7.10003604,5.28039254 L7.10003604,4.59704762 C7.10003604,4.47280309 7.22245045,4.34855856 7.34486486,4.34855856 L35.3165586,4.34855856 C35.5001802,4.34855856 35.5613874,4.47280309 35.5613874,4.59704762 Z M7.10003604,28.7004865 L7.10003604,19.3200245 L9.85436036,19.3200245 L9.85436036,23.1716049 C9.85436036,23.5443385 10.0991892,23.7928275 10.4664324,23.7928275 L12.9147207,23.7928275 C13.281964,23.7928275 13.5267928,23.5443385 13.5267928,23.1716049 L13.5267928,19.3200245 L16.3423243,19.3200245 L16.3423243,28.7004865 L7.10003604,28.7004865 Z M7.10003604,7.64103861 L35.5613874,7.64103861 L35.5613874,6.5849601 L7.10003604,6.5849601 L7.10003604,7.64103861 Z M7.10003604,9.87744015 L35.5613874,9.87744015 L35.5613874,8.82136165 L7.10003604,8.82136165 L7.10003604,9.87744015 Z M11.0785045,22.5503822 L12.3026486,22.5503822 L12.3026486,19.3200245 L11.0785045,19.3200245 L11.0785045,22.5503822 Z M7.28365766,18.0775792 L13.6492072,18.0775792 L13.6492072,13.2320425 L7.28365766,13.2320425 L7.28365766,18.0775792 Z M7.10003604,12.0517194 L35.5613874,12.0517194 L35.5613874,11.1820077 L7.10003604,11.1820077 L7.10003604,12.0517194 Z M21.3613153,20.0033694 C21.7285586,20.0033694 22.0345946,20.3139807 22.0345946,20.6867143 C22.0345946,21.0594479 21.7285586,21.3700592 21.3613153,21.3700592 C20.9940721,21.3700592 20.688036,21.0594479 20.688036,20.6867143 C20.688036,20.3139807 20.9940721,20.0033694 21.3613153,20.0033694 Z M26.0742703,21.9291596 L28.3389369,17.4563565 L30.2363604,17.4563565 L32.501027,21.9291596 L26.0742703,21.9291596 Z M28.5837658,28.1413861 C28.7673874,28.0171416 28.8898018,27.8307748 28.8898018,27.644408 L28.8898018,23.1094826 L29.6854955,23.1094826 L29.6854955,27.644408 C29.6854955,27.8307748 29.8079099,28.0792638 29.9915315,28.1413861 L30.8484324,28.7004865 L27.7268649,28.7004865 L28.5837658,28.1413861 Z M33.1743063,28.7004865 L30.9096396,27.2716744 L30.9096396,23.1094826 L33.4803423,23.1094826 C33.663964,23.1094826 33.9087928,22.9852381 33.97,22.7988713 C34.0312072,22.6125045 34.0924144,22.3640154 33.97,22.1776486 L31.0932613,16.4624003 C30.9708468,16.2760335 30.7872252,16.1517889 30.5423964,16.1517889 L27.9104865,16.1517889 C27.6656577,16.1517889 27.482036,16.2760335 27.3596216,16.4624003 L24.4828829,22.1776486 C24.3604685,22.3640154 24.4216757,22.6125045 24.4828829,22.7988713 C24.6052973,22.9852381 24.7889189,23.1094826 24.9725405,23.1094826 L27.5432432,23.1094826 L27.5432432,27.2716744 L25.3397838,28.7004865 L17.6276757,28.7004865 L17.6276757,18.6988018 C17.6276757,18.3260682 17.3828468,18.0775792 17.0156036,18.0775792 L14.9345586,18.0775792 L14.9345586,13.2320425 L20.7492432,13.2320425 L20.7492432,18.8230463 C20.0147568,19.0715354 19.5250991,19.7548803 19.5250991,20.624592 C19.5250991,21.6806705 20.382,22.48826 21.3613153,22.48826 C22.4018378,22.48826 23.1975315,21.6185483 23.1975315,20.624592 C23.1975315,19.8170026 22.6466667,19.0715354 21.9733874,18.8230463 L21.9733874,13.2320425 L35.6225946,13.2320425 L35.6225946,28.7004865 L33.1743063,28.7004865 Z M39.295027,38.888538 L26.2578919,38.888538 L26.2578919,37.7082149 C26.2578919,37.3354813 26.0130631,37.0869923 25.6458198,37.0869923 L17.0156036,37.0869923 C16.6483604,37.0869923 16.4035315,37.3354813 16.4035315,37.7082149 L16.4035315,38.888538 L3.3663964,38.888538 L3.3663964,36.5278919 L39.2338198,36.5278919 L39.2338198,38.888538 L39.295027,38.888538 Z M37.3976036,44.4795418 C37.3976036,44.9143977 37.0915676,45.2871313 36.6631171,45.3492535 L36.8467387,45.1007645 C37.0303604,44.8522754 37.0303604,44.5416641 36.8467387,44.3552973 L36.1734595,43.4855856 L36.8467387,42.6158739 C37.0303604,42.3673848 37.0303604,42.0567735 36.8467387,41.8704067 L36.1734595,41.000695 L36.7855315,40.1931055 L37.3363964,40.1931055 L37.3363964,44.4795418 L37.3976036,44.4795418 Z M34.9493153,41.3113063 L35.6225946,42.181018 L34.9493153,43.0507297 C34.7656937,43.2992188 34.7656937,43.6098301 34.9493153,43.7961969 L35.6225946,44.6659086 L35.1329369,45.2871313 L34.4596577,45.2871313 L34.6432793,45.0386422 C34.8269009,44.7901532 34.8269009,44.4795418 34.6432793,44.293175 L33.97,43.4234633 L34.6432793,42.5537516 C34.8269009,42.3052625 34.8269009,41.9946512 34.6432793,41.8082844 L33.97,40.9385727 L34.5820721,40.1309833 L35.2553514,40.1309833 L34.9493153,40.5658391 C34.7656937,40.7522059 34.7656937,41.0628172 34.9493153,41.3113063 Z M32.194991,44.4795418 L32.194991,40.1309833 L33.0518919,40.1309833 L32.7458559,40.5658391 C32.5622342,40.8143282 32.5622342,41.1249395 32.7458559,41.3113063 L33.4191351,42.181018 L32.7458559,43.0507297 C32.5622342,43.2992188 32.5622342,43.6098301 32.7458559,43.7961969 L33.4191351,44.6659086 L32.9294775,45.2871313 C32.501027,45.2871313 32.194991,44.9143977 32.194991,44.4795418 Z M17.6276757,41.0628172 L25.094955,41.0628172 L25.094955,38.3294376 L17.6276757,38.3294376 L17.6276757,41.0628172 Z M11.0785045,44.4795418 C11.0785045,44.9143977 10.7112613,45.2871313 10.2828108,45.3492535 L10.4664324,45.1007645 C10.6500541,44.8522754 10.6500541,44.5416641 10.4664324,44.3552973 L9.79315315,43.4855856 L10.4664324,42.6158739 C10.6500541,42.3673848 10.6500541,42.0567735 10.4664324,41.8704067 L9.79315315,41.000695 L10.4052252,40.1931055 L11.0785045,40.1931055 L11.0785045,44.4795418 Z M8.56900901,41.3113063 L9.24228829,42.181018 L8.56900901,43.0507297 C8.38538739,43.2992188 8.38538739,43.6098301 8.56900901,43.7961969 L9.24228829,44.6659086 L8.75263063,45.2871313 L8.07935135,45.2871313 L8.26297297,45.0386422 C8.44659459,44.7901532 8.44659459,44.4795418 8.26297297,44.293175 L7.6509009,43.4234633 L8.32418018,42.5537516 C8.5078018,42.3052625 8.5078018,41.9946512 8.32418018,41.8082844 L7.6509009,40.9385727 L8.26297297,40.1309833 L8.87504505,40.1309833 L8.56900901,40.5658391 C8.38538739,40.7522059 8.38538739,41.0628172 8.56900901,41.3113063 Z M5.9370991,44.4795418 L5.9370991,40.1309833 L6.73279279,40.1309833 L6.42675676,40.5658391 C6.24313514,40.8143282 6.24313514,41.1249395 6.42675676,41.3113063 L7.10003604,42.181018 L6.42675676,43.0507297 C6.24313514,43.2992188 6.24313514,43.6098301 6.42675676,43.7961969 L7.10003604,44.6659086 L6.61037838,45.2871313 C6.18192793,45.225009 5.9370991,44.8522754 5.9370991,44.4795418 Z M2.93794595,20.5624698 L1.34655856,20.5624698 C1.28535135,20.5624698 1.22414414,20.5003475 1.22414414,20.4382252 L1.22414414,15.9654221 C1.22414414,15.9032999 1.28535135,15.8411776 1.34655856,15.8411776 L2.93794595,15.8411776 C2.99915315,15.8411776 2.99915315,15.8411776 3.06036036,15.9032999 L3.06036036,20.4382252 C3.06036036,20.5003475 2.99915315,20.5624698 2.93794595,20.5624698 Z M41.3760721,14.5987323 L39.7846847,14.5987323 C39.7234775,14.5987323 39.7234775,14.5987323 39.6622703,14.5987323 L39.6622703,1.92579022 C39.6622703,1.11820077 38.988991,0.434855856 38.1932973,0.434855856 L4.52933333,0.434855856 C3.73363964,0.434855856 3.06036036,1.11820077 3.06036036,1.92579022 L3.06036036,14.5987323 C2.99915315,14.5987323 2.99915315,14.5987323 2.93794595,14.5987323 L1.34655856,14.5987323 C0.612072072,14.5987323 0,15.219955 0,15.9654221 L0,20.4382252 C0,21.1836924 0.612072072,21.8049151 1.34655856,21.8049151 L2.93794595,21.8049151 C2.99915315,21.8049151 2.99915315,21.8049151 3.06036036,21.8049151 L3.06036036,35.2854466 L2.81553153,35.2854466 C2.44828829,35.2854466 2.20345946,35.5339356 2.20345946,35.9066692 L2.20345946,39.5097606 C2.20345946,39.8824942 2.44828829,40.1309833 2.81553153,40.1309833 L4.71295495,40.1309833 L4.71295495,44.4795418 C4.71295495,45.6598649 5.63106306,46.5916988 6.794,46.5916988 L10.2828108,46.5916988 C11.4457477,46.5916988 12.3638559,45.6598649 12.3638559,44.4795418 L12.3638559,40.1309833 L16.4647387,40.1309833 L16.4647387,41.6840399 C16.4647387,42.0567735 16.7095676,42.3052625 17.0768108,42.3052625 L25.7682342,42.3052625 C26.1354775,42.3052625 26.3803063,42.0567735 26.3803063,41.6840399 L26.3803063,40.1309833 L31.0932613,40.1309833 L31.0932613,44.4795418 C31.0932613,45.6598649 32.0113694,46.5916988 33.1743063,46.5916988 L36.6631171,46.5916988 C37.8260541,46.5916988 38.7441622,45.6598649 38.7441622,44.4795418 L38.7441622,40.1309833 L40.0295135,40.1309833 C40.3967568,40.1309833 40.6415856,39.8824942 40.6415856,39.5097606 L40.6415856,35.9066692 C40.6415856,35.5339356 40.3967568,35.2854466 40.0295135,35.2854466 L39.7846847,35.2854466 L39.7846847,21.8049151 C39.8458919,21.8049151 39.8458919,21.8049151 39.9070991,21.8049151 L41.4984865,21.8049151 C42.232973,21.8049151 42.845045,21.1836924 42.845045,20.4382252 L42.845045,15.9654221 C42.7226306,15.219955 42.1105586,14.5987323 41.3760721,14.5987323 L41.3760721,14.5987323 Z" id="Fill-1" fill="#0071BC" mask="url(#mask-2)"></path>
                </g>
            </g>
        </g>
    </g>
</svg>

<svg width="43" height="47" viewBox="0 0 43 47" xmlns="http://www.w3.org/2000/svg" xmlns:xlink="http://www.w3.org/1999/xlink"><title>Index_Mobile_movingDay_anchor</title><defs><path id="a" d="M.037 46.592h42.808V.435H.037z"/></defs><g fill="none" fill-rule="evenodd"><mask id="b" fill="#fff"><use xlink:href="#a"/></mask><path d="M41.498 20.438c0 .062-.06.124-.122.124h-1.591c-.062 0-.123-.062-.123-.124v-4.473c0-.062.061-.124.123-.124h1.591c.061 0 .122.062.122.124v4.473zm-4.712 14.785V4.473c0-.746-.613-1.367-1.347-1.367H7.222c-.734 0-1.346.621-1.346 1.367v30.75H4.285V20.625v-4.66V1.926c0-.124.122-.249.244-.249h33.664c.123 0 .245.125.245.249v33.297h-1.652zM7.1 30.005h9.916c.06 0 .122 0 .244-.062h18.363v5.28H7.1v-5.218zM35.561 4.597v.683H7.1v-.683c0-.124.122-.248.245-.248h27.972c.183 0 .244.124.244.248zM7.1 28.7v-9.38h2.754v3.852c0 .372.245.62.612.62h2.449c.367 0 .612-.248.612-.62V19.32h2.815v9.38H7.1zm0-21.059h28.461V6.585H7.1v1.056zm0 2.236h28.461V8.821H7.1v1.056zm3.979 12.673h1.224v-3.23h-1.224v3.23zm-3.795-4.472h6.365v-4.846H7.284v4.846zM7.1 12.052h28.461v-.87H7.1v.87zm14.261 7.951a.684.684 0 0 1 0 1.367.684.684 0 0 1 0-1.367zm4.713 1.926l2.265-4.473h1.897l2.265 4.473h-6.427zm2.51 6.212c.183-.124.306-.31.306-.497V23.11h.795v4.535c0 .187.123.435.307.497l.856.56h-3.121l.857-.56zm4.59.56l-2.264-1.43V23.11h2.57c.184 0 .429-.124.49-.31s.122-.435 0-.621l-2.877-5.716a.64.64 0 0 0-.55-.31H27.91a.64.64 0 0 0-.55.31l-2.877 5.716c-.123.186-.061.435 0 .62.122.187.306.311.49.311h2.57v4.163L25.34 28.7h-7.712V18.7c0-.373-.245-.621-.612-.621h-2.081v-4.846h5.814v5.591c-.734.249-1.224.932-1.224 1.802 0 1.056.857 1.863 1.836 1.863 1.04 0 1.837-.87 1.837-1.863 0-.808-.551-1.553-1.225-1.802v-5.591h13.65V28.7h-2.449zm6.121 10.188H26.258v-1.18c0-.374-.245-.622-.612-.622h-8.63c-.368 0-.612.248-.612.621v1.18H3.366v-2.36h35.868v2.36h.061zm-1.897 5.59a.867.867 0 0 1-.735.87l.184-.248c.183-.249.183-.56 0-.746l-.674-.87.674-.87c.183-.248.183-.558 0-.745l-.674-.87.613-.807h.55v4.287h.062zm-2.449-3.168l.674.87-.674.87c-.183.248-.183.559 0 .745l.674.87-.49.621h-.673l.183-.248c.184-.249.184-.56 0-.746l-.673-.87.673-.87c.184-.248.184-.558 0-.745l-.673-.87.612-.807h.673l-.306.435c-.183.186-.183.497 0 .745zm-2.754 3.169V40.13h.857l-.306.435c-.184.248-.184.559 0 .745l.673.87-.673.87c-.184.248-.184.559 0 .745l.673.87-.49.621c-.428 0-.734-.373-.734-.807zm-14.567-3.417h7.467v-2.734h-7.467v2.734zm-6.55 3.417c0 .434-.367.807-.795.87l.183-.25c.184-.248.184-.558 0-.745l-.673-.87.673-.87c.184-.248.184-.558 0-.745L9.793 41l.612-.807h.674v4.287zM8.57 41.31l.673.87-.673.87c-.184.248-.184.559 0 .745l.673.87-.49.621H8.08l.184-.248c.184-.249.184-.56 0-.746l-.612-.87.673-.87c.184-.248.184-.558 0-.745l-.673-.87.612-.807h.612l-.306.435c-.184.186-.184.497 0 .745zM5.937 44.48V40.13h.796l-.306.435c-.184.248-.184.559 0 .745l.673.87-.673.87c-.184.248-.184.559 0 .745l.673.87-.49.621c-.428-.062-.673-.435-.673-.807zm-3-23.918h-1.59c-.062 0-.123-.062-.123-.124v-4.473c0-.062.061-.124.123-.124h1.59c.062 0 .062 0 .123.062v4.535c0 .062-.06.124-.122.124zm38.44-5.963h-1.715V1.926c0-.808-.673-1.491-1.469-1.491H4.53c-.795 0-1.469.683-1.469 1.49V14.6H1.347C.612 14.599 0 15.22 0 15.965v4.473c0 .746.612 1.367 1.347 1.367H3.06v13.48h-.244c-.368 0-.613.249-.613.622v3.603c0 .372.245.621.613.621h1.897v4.349c0 1.18.918 2.112 2.081 2.112h3.489c1.163 0 2.08-.932 2.08-2.112V40.13h4.102v1.553c0 .373.245.621.612.621h8.691c.367 0 .612-.248.612-.621v-1.553h4.713v4.349c0 1.18.918 2.112 2.081 2.112h3.49c1.162 0 2.08-.932 2.08-2.112V40.13h1.286c.367 0 .612-.249.612-.621v-3.603c0-.373-.245-.622-.612-.622h-.245v-13.48h1.713c.735 0 1.347-.621 1.347-1.367v-4.473c-.122-.745-.734-1.366-1.469-1.366z" fill="#0071BC" mask="url(#b)"/></g></svg>
